packages/foundations/assets/icons/functional/images/technology/database_16.svg

<svg width="16" height="16" viewBox="0 0 16 16" fill="none" xmlns="http://www.w3.org/2000/svg">
<g clip-path="url(#clip0_187_584)">
<path fill-rule="evenodd" clip-rule="evenodd" d="M12 2.3895C13.3255 2.3895 14.4 3.46401 14.4 4.7895C14.4 5.40414 14.1689 5.96482 13.7889 6.38942C14.1686 6.81348 14.4 7.37447 14.4 7.9895C14.4 8.60452 14.1686 9.16551 13.7882 9.5902C14.1689 10.0142 14.4 10.5748 14.4 11.1895C14.4 12.4676 13.3717 13.5895 12 13.6105L3.99998 13.5895C2.67449 13.5895 1.59998 12.515 1.59998 11.1895C1.59998 10.5748 1.83103 10.0142 2.21102 9.58957C1.83131 9.16551 1.59998 8.60452 1.59998 7.9895C1.59998 7.37485 1.83103 6.81417 2.21102 6.38957C1.83131 5.96551 1.59998 5.40452 1.59998 4.7895C1.59998 3.51135 2.62393 2.3895 3.99998 2.3895H12ZM3.99998 10.3895C3.55815 10.3895 3.19998 10.7477 3.19998 11.1895C3.19998 11.5998 3.53296 11.9895 3.99998 11.9895H12C12.4418 11.9895 12.8 11.6313 12.8 11.1895C12.8 10.7792 12.4778 10.3895 12 10.3895H3.99998ZM3.99998 7.1895C3.55815 7.1895 3.19998 7.54767 3.19998 7.9895C3.19998 8.39976 3.54172 8.7895 3.99998 8.7895H12C12.4418 8.7895 12.8 8.43132 12.8 7.9895C12.8 7.57923 12.4943 7.21496 12 7.1895H3.99998ZM3.99998 3.9895C3.55815 3.9895 3.19998 4.34767 3.19998 4.7895C3.19998 5.19976 3.54329 5.5895 3.99998 5.5895H12C12.4418 5.5895 12.8 5.23132 12.8 4.7895C12.8 4.37923 12.4666 3.9895 12 3.9895H3.99998Z" fill="#1A1C1F"/>
</g>
<defs>
<clipPath id="clip0_187_584">
<rect width="16" height="16" fill="white"/>
</clipPath>
</defs>
</svg>

<svg xmlns="http://www.w3.org/2000/svg" width="16" height="16" fill="none"><g clip-path="url(#a)"><path fill="#1A1C1F" fill-rule="evenodd" d="M12 2.39a2.4 2.4 0 0 1 1.789 4c.38.423.611.984.611 1.6 0 .615-.231 1.176-.612 1.6.38.424.612.985.612 1.6 0 1.278-1.028 2.4-2.4 2.42l-8-.02a2.4 2.4 0 0 1-1.789-4 2.4 2.4 0 0 1-.611-1.6c0-.615.231-1.176.611-1.6A2.398 2.398 0 0 1 4 2.39zm-8 8a.8.8 0 0 0 0 1.6h8a.8.8 0 0 0 0-1.6zm0-3.2a.8.8 0 0 0-.8.8c0 .41.342.8.8.8h8a.8.8 0 0 0 .8-.8c0-.41-.306-.775-.8-.8zm0-3.2a.8.8 0 0 0-.8.8c0 .41.343.8.8.8h8a.8.8 0 0 0 0-1.6z" clip-rule="evenodd"/></g><defs><clipPath id="a"><path fill="#fff" d="M0 0h16v16H0z"/></clipPath></defs></svg>
